X: 1981
T: Yegâh Seyir
C: Şefik Gürmeriç
O: Turkey
F: http://compmusic.upf.edu/node/140
N: yegah--seyir--sofyan--1--sefik_gurmeric
N: makam= yegah
N: form= seyir
N: usul= sofyan = 4/4
M: 4/4
L: 1/16
K: C _2/4B ^f  
Q: 1/4=60
%%MIDI tuningsystem comma53
c4 d4 d4 e4  | d4 c2B2 A8  | d4 e4 ^3/4f2g2 a=bag  | \
w:   |   |   | 
^3/4f3e efed d8  | 
w:   | 
z2e4g2 ^3/4f3e d4  | g2^3/4fe f2g2 a8  | \
w:   |   | 
a2g2 g2^3/4f2 f2e2 e2d2  | d3c B2d2 c4 B4  | 
w:   |   | 
z2g2 ^3/4f2g2 =fed2 e2ed  | d8 cded d4  | \
w:   |   | 
c4 d4 d4 c2d2  | 
w:   | 
e2=f2 e2d2 cdcB A4  | z2A2 =B2^c2 d4 =c2B2  | \
w:   |   | 
=B2A2 A2G2 ^3/4F3E D4  | 
w:   | 
E2G2 ^3/4F2E2 E2D2 D2^C2  | D12 z4  | |


